images/mug-hot-solid.svg

<svg xmlns="http://www.w3.org/2000/svg" viewBox="0 0 512 512"><!--!Font Awesome Free 6.7.2 by @fontawesome - https://fontawesome.com License - https://fontawesome.com/license/free Copyright 2025 Fonticons, Inc.--><path fill="#ffffff" d="M88 0C74.7 0 64 10.7 64 24c0 38.9 23.4 59.4 39.1 73.1l1.1 1C120.5 112.3 128 119.9 128 136c0 13.3 10.7 24 24 24s24-10.7 24-24c0-38.9-23.4-59.4-39.1-73.1l-1.1-1C119.5 47.7 112 40.1 112 24c0-13.3-10.7-24-24-24zM32 192c-17.7 0-32 14.3-32 32L0 416c0 53 43 96 96 96l192 0c53 0 96-43 96-96l16 0c61.9 0 112-50.1 112-112s-50.1-112-112-112l-48 0L32 192zm352 64l16 0c26.5 0 48 21.5 48 48s-21.5 48-48 48l-16 0 0-96zM224 24c0-13.3-10.7-24-24-24s-24 10.7-24 24c0 38.9 23.4 59.4 39.1 73.1l1.1 1C232.5 112.3 240 119.9 240 136c0 13.3 10.7 24 24 24s24-10.7 24-24c0-38.9-23.4-59.4-39.1-73.1l-1.1-1C231.5 47.7 224 40.1 224 24z"/></svg>

<?xml version="1.0" encoding="UTF-8" standalone="no" ?>
<!DOCTYPE svg PUBLIC "-//W3C//DTD SVG 1.1//EN" "http://www.w3.org/Graphics/SVG/1.1/DTD/svg11.dtd">
<svg xmlns="http://www.w3.org/2000/svg" xmlns:xlink="http://www.w3.org/1999/xlink" version="1.1" width="1080" height="1080" viewBox="0 0 1080 1080" xml:space="preserve">
<desc>Created with Fabric.js 5.2.4</desc>
<defs>
</defs>
<g transform="matrix(1 0 0 1 540 540)" id="cdda7c9c-89d1-4714-a8fa-716a62c7a2c5"  >
<rect style="stroke: none; stroke-width: 1; stroke-dasharray: none; stroke-linecap: butt; stroke-dashoffset: 0; stroke-linejoin: miter; stroke-miterlimit: 4; fill: rgb(255,255,255); fill-rule: nonzero; opacity: 1; visibility: hidden;" vector-effect="non-scaling-stroke"  x="-540" y="-540" rx="0" ry="0" width="1080" height="1080" />
</g>
<g transform="matrix(1 0 0 1 540 540)" id="d6d9dcc3-1dc8-408c-875b-5da8329d798f"  >
</g>
<g transform="matrix(1 0 0 1 540 540)" id="845454cb-f2b5-4aa2-bc69-2944318a1a59"  >
<path style="stroke: rgb(0,0,0); stroke-width: 0; stroke-dasharray: none; stroke-linecap: butt; stroke-dashoffset: 0; stroke-linejoin: miter; stroke-miterlimit: 4; fill: rgb(255,255,255); fill-rule: nonzero; opacity: 1;" vector-effect="non-scaling-stroke"  transform=" translate(-256, -256)" d="M 88 0 C 74.7 0 64 10.7 64 24 C 64 62.9 87.4 83.4 103.1 97.1 L 104.19999999999999 98.1 C 120.5 112.3 128 119.9 128 136 C 128 149.3 138.7 160 152 160 C 165.3 160 176 149.3 176 136 C 176 97.1 152.6 76.6 136.9 62.900000000000006 L 135.8 61.900000000000006 C 119.5 47.7 112 40.1 112 24 C 112 10.7 101.3 0 88 0 z M 32 192 C 14.3 192 0 206.3 0 224 L 0 416 C 0 469 43 512 96 512 L 288 512 C 341 512 384 469 384 416 L 400 416 C 461.9 416 512 365.9 512 304 C 512 242.10000000000002 461.9 192 400 192 L 352 192 L 32 192 z M 384 256 L 400 256 C 426.5 256 448 277.5 448 304 C 448 330.5 426.5 352 400 352 L 384 352 L 384 256 z M 224 24 C 224 10.7 213.3 0 200 0 C 186.7 0 176 10.7 176 24 C 176 62.9 199.4 83.4 215.1 97.1 L 216.2 98.1 C 232.5 112.3 240 119.9 240 136 C 240 149.3 250.7 160 264 160 C 277.3 160 288 149.3 288 136 C 288 97.1 264.6 76.6 248.9 62.900000000000006 L 247.8 61.900000000000006 C 231.5 47.7 224 40.1 224 24 z" stroke-linecap="round" />
</g>
</svg>
